X:1
T:Title
%%score 1 { 2 | 3 }
L:1/8
M:4/4
K:F
V:1 treble nm="Grand Piano, Unnamed-000"
V:2 treble nm="Choir Pad, Finlandia"
V:3 bass 
V:1
 [FA]2 [EG]2 [FA]2 [EB]2- | [EB]4 [FA]2 [EG]2 | [FA]2 [DF]2- [DF][EG] [EG]2 | [FA]6 [FA]2 | %4
w: By~Jean~Sibelius * * *||||
 [EG]2 [FA]2 [EB]4- | [EB]2 [FA]2 [EG]2 [FA]2 | [DF]3 [EG] [FA]4- | [FA]6 [Fc]2 | %8
w: ||||
 [Fc]2 [Fc]2 [Fd]4- | [Fd]2 [FA]2 [FA]2 [Fc]2 | [Fc]3 [EG] [EG]2 [GB]2- | [GB]6 [GB]2 | %12
w: ||||
 [^FA]2 G2 [=FA]4- | [FA]2 F2 F2 [FG]2 | [EG]3 [EA] [EA]4- | [EA]6 [Ac]2 | [Fc]2 [Fc]2 [Fd]4- | %17
w: |||||
 [Fd]2 [FA]2 [FA]2 [Fc]2 | [Fc]3 [EG] [EG]2 [GB]2- | [GB]6 [GB]2 | [^FA]2 G2 [=FA]4- | %21
w: ||||
 [FA]2 [CF]2 F2 [FG]2 | [EG]3 F F4- | F6 z2 |] %24
w: |||
V:2
 C2 C2 C2 C2- | C4 C2 C2 | C2[K:bass] B,2- B,B, C2- | C6[K:treble] C2 | C2 C2 C4- | C2 C2 C2 C2 | %6
 B,3 B, C4- | C6 A,2 | A,2 A,2 A,4- | A,2[K:treble] D2 D2 C2 | C3 C C2 D2- | D6 D2 | C2 D2 C4- | %13
 C2 C2 D2 D2 | D3 ^C C4- | C6 =C2 | A,2 A,2 A,4- | A,2 D2[K:treble] D2 C2 | C3 C C2 D2- | D6 D2 | %20
 C2 D2 C4- | C2[K:bass] A,2 A,2 B,2 | B,3 A, A,4- | A,6 z2 |] %24
V:3
 F,2 B,2 A,2 G,2- | G,4 F,2 B,2 | A,2 z2 z G, G,2 | F,6 F,2 | B,2 A,2 G,4- | G,2 F,2 B,2 A,2 | %6
 z2 z G, F,4- | F,6 F,2 | F,2 E,2 D,4- | D,2 D,2 D,2 A,,2 | A,,3 C, C,2 G,,2- | G,,6 G,,2 | %12
 A,,2 B,,2 A,,4- | A,,2 z2 B,2 B,2 | B,4 A,4- | A,6 F,2 | F,2 E,2 D,4- | D,2 C,2 D,2 A,2 | %18
 A,4 z2 G,2- | G,6 G,,2 | A,,2 B,,2 C,4- | C,2 C,2 C,2 C,2 | C,3 F, F,4- | F,6 z2 |] %24

